src/section/s1/logo.svg

<svg width="217" height="74" viewBox="0 0 217 74" fill="none" xmlns="http://www.w3.org/2000/svg">
<path d="M155.878 4.61845H139.593V6.13838H155.878V4.61845Z" fill="white"/>
<path d="M160.655 22.5465V21.0207H137.891C138.009 19.8059 138.073 18.5853 138.073 17.3588V4.61845H116.219V6.13838H134.118V17.9574C134.118 18.9844 134.071 20.0055 133.977 21.0207H112.904V22.5465H133.801C133.296 26.1908 132.205 29.7118 130.562 32.916C125.503 42.7808 117.193 46.6305 112.692 48.0507C112.311 48.168 112.105 48.5201 112.188 48.9016C112.264 49.2478 112.563 49.4884 112.921 49.4884C112.956 49.4884 112.986 49.4884 113.021 49.4826C121.871 48.3852 129.007 43.309 133.666 34.8115C135.732 31.044 137.093 26.8715 137.704 22.5524H160.649L160.655 22.5465Z" fill="white"/>
<path d="M161.829 44.5355C156.635 43.309 152.316 41.3783 149 38.7962C143.173 34.3009 139.652 29.9524 138.519 25.8563H138.484L138.167 27.2119V27.2295C139.165 32.9043 142.357 37.3056 145.544 41.3255C147.915 44.2479 151.078 46.8183 154.681 48.7666C156.001 49.4474 157.022 49.8405 157.486 49.8405C157.991 49.8405 158.19 49.3417 158.372 48.7784C159.106 46.742 159.751 46.1024 161.84 45.3688H161.858C162.04 45.2866 162.146 45.0989 162.122 44.8935C162.105 44.7174 161.987 44.5766 161.829 44.5414V44.5355Z" fill="white"/>
<path d="M170.35 48.2619C170.35 48.5143 170.473 48.749 170.684 48.9016C170.831 49.0072 171.001 49.06 171.177 49.06C171.253 49.06 171.336 49.0483 171.412 49.0307L172.92 48.614C173.472 48.4615 173.853 47.9744 173.853 47.4227V14.1077L170.35 12.4645V48.2619Z" fill="white"/>
<path d="M201.1 43.2033C201.259 42.4287 201.018 41.6365 200.46 41.0848C196.934 37.6225 192.116 36.8068 190.208 36.619C189.909 36.5896 189.627 36.7774 189.551 37.0591C189.475 37.3408 189.627 37.6459 189.909 37.7633C191.869 38.5673 196.664 40.9557 198.776 45.674L199.034 46.2491C199.158 46.5249 199.439 46.7009 199.75 46.7009C199.78 46.7009 199.809 46.7009 199.833 46.7009C200.173 46.6657 200.449 46.4251 200.513 46.0965L201.106 43.2033H201.1Z" fill="white"/>
<path d="M182.315 4.41892H168.266V5.93884H182.315V10.974C182.315 11.2322 182.433 11.461 182.65 11.6136C182.797 11.7192 182.967 11.7721 183.143 11.7721C183.219 11.7721 183.295 11.7603 183.372 11.7427L184.88 11.3261C185.431 11.1735 185.813 10.6864 185.813 10.1348V0.328629H182.309V4.41892H182.315Z" fill="white"/>
<path d="M198.917 9.91764C198.917 10.17 199.04 10.4047 199.252 10.5573C199.398 10.6629 199.569 10.7157 199.745 10.7157C199.821 10.7157 199.897 10.704 199.973 10.6864L201.482 10.2697C202.033 10.1172 202.415 9.62421 202.415 9.07845V5.94471H216.217V4.42479H202.415V0.328629H198.911V4.41892H187.744V5.93884H198.911V9.91177L198.917 9.91764Z" fill="white"/>
<path d="M182.315 14.3894H175.749V15.9093H182.315V27.4994H175.749V29.0252H182.315V41.66H175.749V43.1799H182.315V47.6105C182.315 47.8453 182.439 48.0565 182.644 48.1856C182.761 48.2561 182.89 48.2913 183.02 48.2913C183.119 48.2913 183.213 48.2737 183.307 48.2326L185.126 47.4521C185.549 47.2702 185.819 46.8652 185.819 46.4192V13.4563H182.315V14.3894Z" fill="white"/>
<path d="M187.767 23.908V25.4279H215.648V23.908H202.421V12.1183H198.917V15.9973H189.076V17.5642H198.917V23.908H187.767Z" fill="white"/>
<path d="M216.669 31.7951H208.811V27.5053H205.355V31.7951H187.485V33.3151H205.355V41.5132C205.355 47.9802 202.262 52.1762 200.419 54.101C200.302 54.2243 200.296 54.3886 200.402 54.5177C200.466 54.594 200.56 54.635 200.66 54.635C200.73 54.635 200.795 54.6116 200.854 54.5764C201.065 54.4296 201.27 54.2829 201.476 54.1362C206.071 50.7677 208.811 45.3219 208.811 39.5767V33.3092H216.669V31.7893V31.7951Z" fill="white"/>
<path d="M212.861 16.0208H204.351V17.5407H212.861V16.0208Z" fill="white"/>
<path d="M2.03139 1.70771C4.06773 2.5469 9.04415 5.02338 11.2448 9.94112L11.5089 10.5338C11.5969 10.7275 11.7964 10.8507 12.0136 10.8507C12.0312 10.8507 12.0547 10.8507 12.0723 10.8507C12.3129 10.8272 12.5065 10.6571 12.5535 10.4341L13.1579 7.47051C13.2988 6.76043 13.0816 6.03861 12.5652 5.53393C9.01481 2.03635 4.14402 1.21477 2.23091 1.02698H2.20157C2.00791 1.02698 1.86707 1.12674 1.82012 1.29106C1.77318 1.46711 1.8612 1.63729 2.03726 1.70771H2.03139Z" fill="white"/>
<path d="M9.64277 20.3634L9.90685 20.9561C9.99488 21.1498 10.1885 21.273 10.4115 21.273C10.435 21.273 10.4526 21.273 10.4702 21.273C10.7108 21.2496 10.9045 21.0794 10.9514 20.8564L11.5559 17.8928C11.6967 17.1827 11.4796 16.4609 10.9632 15.9562C7.41277 12.4645 2.54198 11.6488 0.623003 11.4552C0.611266 11.4552 0.593661 11.4552 0.581924 11.4552C0.394134 11.4552 0.25916 11.5549 0.212213 11.7192C0.165266 11.8953 0.253292 12.0655 0.429345 12.1359C2.46569 12.9751 7.44211 15.4516 9.64277 20.3693V20.3634Z" fill="white"/>
<path d="M29.7597 11.0092C29.7597 11.2674 29.883 11.508 30.0942 11.6723C30.2468 11.7897 30.4405 11.8542 30.6341 11.8542C30.7104 11.8542 30.7867 11.8425 30.863 11.8249L32.6176 11.197C33.269 11.0092 33.7209 10.4223 33.7209 9.76506V0H29.7597V5.70411H17.7588V7.05385H29.7597V11.0092Z" fill="white"/>
<path d="M29.7598 43.2796C29.7598 43.5378 29.8831 43.7785 30.0943 43.9428C30.2469 44.0601 30.4406 44.1247 30.6342 44.1247C30.7105 44.1247 30.7868 44.113 30.8631 44.0953L32.6178 43.4674C33.2692 43.2796 33.721 42.6928 33.721 42.0355V36.5779H49.2254V35.1753H33.721V24.1603H47.506V22.7578H36.4322C37.8524 21.1087 40.6458 18.1393 43.269 17.0478C43.4626 16.9656 43.58 16.7778 43.5565 16.5724C43.5272 16.3084 43.2983 16.0501 43.0284 15.9973L37.8407 14.8882C37.5179 14.8236 37.1775 14.8882 36.9076 15.0584C36.6846 15.211 36.5379 15.4281 36.4968 15.6804C35.998 19.0959 34.836 21.5841 33.8971 22.7636H28.1695L28.5392 21.8481C28.8209 21.1439 28.7798 20.3576 28.4218 19.7414C26.7787 16.9128 24.3726 15.1816 22.4184 14.1605H48.9613V12.7462H15.4409V14.1605H20.0535C21.7494 15.522 24.7365 18.4386 25.9043 22.7636H16.1627L16.1099 24.1662H29.7598V29.1426H18.6157V30.5569H29.7598V35.1871H14.989V36.5896H29.7598V43.2914V43.2796Z" fill="white"/>
<path d="M45.8569 5.70411H35.5813V7.05385H45.8569V5.70411Z" fill="white"/>
<path d="M45.2231 29.1309H35.5813V30.5452H45.2231V29.1309Z" fill="white"/>
<path d="M50.6161 44.2479C44.1667 45.0402 34.4603 45.3923 27.5356 45.3923H26.2034C22.207 45.3923 15.5229 45.3923 12.5828 41.1024L12.5241 41.0203V23.8317H7.97022V25.5863H0.840088V26.9889H7.98196V41.1318L7.92328 41.2198C6.05125 43.8371 3.34591 46.2549 1.24501 47.9274C1.03961 48.0917 1.02201 48.4028 1.20393 48.5906L3.59238 51.0201C3.85059 51.2783 4.27312 51.2666 4.50785 50.9907C6.84349 48.2502 8.6627 45.451 10.1944 42.2351L10.4643 41.6658L10.7753 42.2175C12.7119 45.6798 15.5757 49.1011 27.2656 49.5588C29.5015 49.6527 32.0366 49.6997 34.8007 49.6997C39.3194 49.6997 44.2958 49.5647 48.1103 49.3476C48.7206 49.3124 49.2487 48.9192 49.46 48.35L50.8743 44.5766C50.9388 44.4005 50.798 44.2245 50.6161 44.2479Z" fill="white"/>
<path d="M80.5159 1.53753H59.4717V2.94008H80.5159V1.53753Z" fill="white"/>
<path d="M103.655 1.53753H82.2178V2.94008H103.655V1.53753Z" fill="white"/>
<path d="M61.4433 16.8248C61.5901 16.9363 61.772 16.995 61.9539 16.995C62.0243 16.995 62.1006 16.9832 62.171 16.9656L63.8083 16.3788C64.4186 16.2027 64.847 15.6511 64.847 15.0349V5.52806H61.1382V16.1969C61.1382 16.4433 61.2556 16.6722 61.4492 16.8248H61.4433Z" fill="white"/>
<path d="M98.1798 18.3154C98.3265 18.4269 98.5025 18.4855 98.6903 18.4855C98.7607 18.4855 98.837 18.4738 98.9074 18.4562L100.545 17.8694C101.155 17.6933 101.583 17.1417 101.583 16.5255V5.52806H97.8746V6.4494H89.9111V7.85195H97.8746V17.6874C97.8746 17.9339 97.992 18.1628 98.1915 18.3154H98.1798Z" fill="white"/>
<path d="M64.5888 32.7869H97.1938V33.3855C97.1938 33.7317 97.3581 34.0545 97.6398 34.2716C97.8452 34.4242 98.0916 34.5063 98.3498 34.5063C98.4555 34.5063 98.5611 34.4946 98.6609 34.4653L100.286 33.8843C101.038 33.6672 101.56 32.9864 101.56 32.2294V23.1099L97.2818 24.9701H91.0319V26.3199H97.1938V31.3843H89.1775V21.0148H103.913V19.5771H84.1835L84.5414 18.6851C84.5943 18.556 84.6295 18.4269 84.6588 18.2978C84.7644 18.3447 84.8818 18.374 84.9992 18.374C85.0696 18.374 85.1459 18.3623 85.2163 18.3447L86.8536 17.7579C87.4639 17.5818 87.8923 17.0302 87.8923 16.414V5.52806H84.1835V16.3553C82.4934 13.7262 80.0051 12.3354 78.4148 11.6723V5.52806H74.706V6.4494H66.7014V7.85195H74.706V17.6874C74.706 17.9339 74.8233 18.1628 75.0229 18.3154C75.1696 18.4269 75.3456 18.4855 75.5334 18.4855C75.6038 18.4855 75.6801 18.4738 75.7505 18.4562L77.3878 17.8694C77.9981 17.6933 78.4265 17.1417 78.4265 16.5255V13.5737C79.7411 14.8589 81.3314 16.8776 82.0063 19.5712H64.6064V19.5125L60.9973 18.198C60.9973 18.198 61.279 33.0921 61.0032 37.4699C60.5513 44.6939 57.7873 48.3617 55.751 50.4919C55.6042 50.6504 55.5925 50.8734 55.7333 51.0377C55.8155 51.1375 55.9387 51.1903 56.062 51.1903C56.15 51.1903 56.238 51.1609 56.3084 51.114C56.5314 50.9614 56.7427 50.8088 56.954 50.6562C61.7426 47.1411 64.6005 41.4722 64.6005 35.4805V32.781L64.5888 32.7869ZM73.9372 31.3843H64.5888V26.3434H73.9372V31.3843ZM85.4687 24.9584H79.5005V26.3258H85.4687V31.3843H77.646V21.0148H85.4687V24.9643V24.9584ZM73.9372 21.009V24.9349H64.5888V21.009H73.9372Z" fill="white"/>
<path d="M82.2821 44.0953C80.0756 44.5237 75.5686 44.9228 71.584 45.2162V40.0344H81.9594V38.7316H71.584V34.9641H68.0101V45.4568C65.6627 45.6094 63.9961 45.6974 63.9492 45.6974H63.6733L64.6592 50.6093L64.8646 50.5917C73.368 49.7701 82.5579 46.6246 82.6518 46.5953L82.8279 46.5366L82.5227 44.0484L82.2821 44.0953Z" fill="white"/>
<path d="M102.886 39.5356H102.511C102.293 39.5356 102.123 39.7175 102.141 39.9346C102.493 44.6939 102.27 45.7033 99.9989 46.0671C99.0775 46.2197 96.4954 46.2901 94.4943 46.2901C93.3969 46.2901 92.4814 46.2725 91.9063 46.2373C88.5437 46.0143 87.9745 45.2456 87.9745 43.6024V42.5167L88.2503 42.4698C92.9391 41.7069 98.4203 39.471 100.504 38.4675L97.7336 35.3455C93.3147 38.6612 89.2186 40.3865 88.4205 40.7034L87.9686 40.8853V34.9699H84.4358V44.4827C84.4358 47.3934 85.2046 48.7666 89.7467 49.2126C90.9028 49.3359 92.6575 49.4063 94.8816 49.4063C97.6632 49.4063 100.04 49.2889 101.096 49.107C102.892 48.796 103.825 48.3206 104.324 47.4814C105.081 46.1962 104.846 43.8841 103.555 40.0227C103.461 39.7351 103.191 39.5356 102.886 39.5356Z" fill="white"/>
<path d="M65.9916 9.82961C65.8449 10.0996 65.927 10.4399 66.1852 10.6219C67.2474 11.373 69.7826 13.4563 70.3929 16.549L70.4692 16.9363C70.522 17.218 70.745 17.441 71.0267 17.5055C71.0267 17.5055 71.0795 17.5173 71.103 17.5173C71.1323 17.5173 71.1675 17.5231 71.1969 17.5231C71.4844 17.5231 71.7426 17.3647 71.86 17.1006L72.6288 15.4164C72.8694 14.8882 72.8283 14.2837 72.5173 13.8025C70.8095 11.1265 67.9105 9.92351 66.7545 9.53619L66.684 9.51272C66.4082 9.44817 66.1265 9.57727 65.9916 9.82375V9.82961Z" fill="white"/>
<path d="M90.6329 9.54206L90.5625 9.52445C90.2866 9.4599 90.005 9.58901 89.87 9.83548C89.7233 10.1054 89.8054 10.4458 90.0636 10.6277C91.1258 11.3789 93.661 13.4622 94.2713 16.5548L94.3476 16.9421C94.4004 17.2238 94.6234 17.4468 94.9051 17.5114C94.9051 17.5114 94.9579 17.5231 94.9814 17.5231C95.0107 17.5231 95.0459 17.529 95.0753 17.529C95.3628 17.529 95.621 17.3705 95.7325 17.1065L96.5013 15.4222C96.7419 14.8941 96.7008 14.2896 96.3898 13.8084C94.6821 11.1324 91.7831 9.92937 90.627 9.54206H90.6329Z" fill="white"/>
<path d="M7.81177 67.2993H7.60637C7.34816 65.6091 6.2449 64.6819 4.84821 64.6819C3.79777 64.6819 2.26611 65.0223 2.26611 69.1126C2.26611 71.46 2.62408 73.6372 4.87169 73.6372C7.11929 73.6372 7.61811 71.7886 7.83524 70.9201H8.01716V73.6606H7.81177L7.40098 72.9153C6.86108 73.332 6.16861 73.8543 4.65456 73.8543C2.27784 73.8543 0.212158 72.2757 0.212158 69.1361C0.212158 66.5305 1.91987 64.4648 4.62521 64.4648C6.22729 64.4648 6.80827 65.0516 7.14277 65.3803L7.60637 64.6585H7.81177V67.2993Z" fill="white"/>
<path d="M22.6825 73.4786H24.0146V73.6605H19.6133V73.4786H20.9337V64.8402H19.6133V64.6583H24.0146V64.8402H22.6825V73.4786Z" fill="white"/>
<path d="M36.5495 73.4786H37.9872V64.8402C35.3288 64.8402 34.9826 66.5655 34.9063 67.5456H34.7126L34.8535 64.6583H42.8463L42.9989 67.5456H42.7935C42.7289 66.6653 42.4355 64.8402 39.7243 64.8402V73.4786H41.1503V73.6605H36.5436V73.4786H36.5495Z" fill="white"/>
<path d="M58.251 64.6583V64.8402H56.6959L59.366 68.8894L61.7897 64.8402H60.2756V64.6583H62.9986V64.8402H62.0244L59.4306 69.1594V73.4786H60.8683V73.6605H56.2499V73.4786H57.6876V69.353L54.7124 64.8402H53.791V64.6583H58.2569H58.251Z" fill="white"/>
<path d="M93.0036 64.6583C95.5975 64.6583 97.7923 66.0667 97.7923 69.0127C97.7923 71.9586 95.8029 73.6605 93.0036 73.6605H88.2795V73.4786H89.7173V64.8402H88.2795V64.6583H93.0036ZM91.4661 64.8402V73.4786H92.5283C95.1339 73.4786 95.7383 71.8002 95.7383 69.2357C95.7383 65.5268 94.4707 64.8461 92.7102 64.8461H91.4661V64.8402Z" fill="white"/>
<path d="M112.035 73.4786H113.367V73.6605H108.966V73.4786H110.286V64.8402H108.966V64.6583H113.367V64.8402H112.035V73.4786Z" fill="white"/>
<path d="M126.207 71.0666L125.309 73.4786H127.005V73.6605H124.077V73.4786H125.104L128.478 64.4588H128.942L132.263 73.4786H133.29V73.6605H128.954V73.4786H130.415L129.552 71.0666H126.201H126.207ZM129.493 70.8847L127.927 66.4658L126.272 70.8847H129.493Z" fill="white"/>
<path d="M147.392 64.6583L149.974 71.2427L152.427 64.6583H155.684V64.8402H154.3V73.4786H155.684V73.6605H151.219V73.4786H152.551V64.8402L149.276 73.6605H149.082L145.603 64.8402V73.4786H146.935V73.6605H144.047V73.4786H145.409V64.8402H144.047V64.6583H147.381H147.392Z" fill="white"/>
<path d="M171.418 64.4588C173.765 64.4588 175.883 66.4775 175.883 69.1594C175.883 71.8413 173.765 73.86 171.418 73.86C169.07 73.86 166.952 71.853 166.952 69.1594C166.952 66.4658 169.082 64.4588 171.418 64.4588ZM171.441 73.6722C173.765 73.6722 173.853 71.3483 173.853 69.1594C173.853 66.812 173.712 64.6466 171.388 64.6466C169.064 64.6466 168.988 67.035 168.988 69.1594C168.988 71.4481 169.094 73.6722 171.441 73.6722Z" fill="white"/>
<path d="M190.578 64.6583L194.968 70.8378V64.8402H193.671V64.6583H196.405V64.8402H195.173V73.8541H194.968L188.577 64.8402V73.4786H189.897V73.6605H187.192V73.4786H188.383V64.8402H187.192V64.6583H190.578Z" fill="white"/>
<path d="M211.874 64.6583C214.468 64.6583 216.663 66.0667 216.663 69.0127C216.663 71.9586 214.674 73.6605 211.874 73.6605H207.15V73.4786H208.588V64.8402H207.15V64.6583H211.874ZM210.337 64.8402V73.4786H211.399C214.005 73.4786 214.609 71.8002 214.609 69.2357C214.609 65.5268 213.342 64.8461 211.581 64.8461H210.337V64.8402Z" fill="white"/>
</svg>

<svg width="217" height="74" viewBox="0 0 217 74" fill="#FFF" xmlns="http://www.w3.org/2000/svg">
<path d="M155.9,4.6h-16.3v1.5h16.3V4.6z M160.6,22.6L160.6,22.6l0-1.5h-47.8v1.5L160.6,22.6z M138.1,17.4V4.6h-21.9v1.5
	h17.9V18c0,19-13.8,27.7-21.4,30.1c-0.9,0.3-0.5,1.5,0.3,1.4C126.1,48.6,138.1,35,138.1,17.4z M161.8,44.5
	c-10.1-1.9-21-10.8-23.3-18.7h0l-0.3,1.4c1.9,9.4,10.3,19.8,19.3,22.6c0.5,0,0.7-0.5,0.9-1.1c0.7-2,1.4-2.7,3.5-3.4h0
	C162.2,45.2,162.2,44.6,161.8,44.5L161.8,44.5z M170.4,48.3c0,1.6,3.5,0.4,3.5-0.6V14.1l-3.5-1.6V48.3z M200.5,46.1
	c0.8-2.9,1-4-0.1-5c-3.6-3.6-8.3-4.3-10.3-4.5c-0.7-0.1-0.9,0.9-0.3,1.1c2,0.8,6.8,3.2,8.9,7.9C199.4,47.1,200.3,46.9,200.5,46.1z
	 M182.3,4.4h-14v1.5h14v5c0.1,1.6,3.5,0.3,3.5-0.6v-10h-3.5L182.3,4.4L182.3,4.4z M198.9,9.9c0.1,1.6,3.5,0.2,3.5-0.5V5.9h13.8V4.4
	h-13.8V0.3h-3.5v4.1h-11.2v1.5h11.2V9.9z M182.3,14.4h-6.6v1.5h6.6v11.6h-6.6V29h6.6v12.6h-6.6v1.5h6.6v4.4c0.1,1.6,3.5-0.3,3.5-0.9
	V13.5h-3.5V14.4z M187.8,23.9v1.5h27.9v-1.5h-13.2V12.1h-3.5V16h-9.8v1.6h9.8v6.3H187.8z M216.7,31.8h-7.9v-4.3h-3.5v4.3h-17.9v1.5
	h17.9v8.2c0,6.5-3.1,10.7-4.9,12.6c-0.3,0.3,0.1,0.7,0.4,0.5c4.9-3.3,8-9,8-15v-6.3h7.9V31.8L216.7,31.8z M212.9,16h-8.5v1.5h8.5V16
	z M12.6,5.5C9,2.1,4.6,1.3,2.2,1C1.8,1,1.6,1.5,2.2,1.8c2.2,0.9,7.1,3.4,9.3,8.6c0.3,0.7,1,0.7,1.1,0.1C13.1,7.7,13.6,6.6,12.6,5.5z
	 M9.8,20.8c0.2,0.6,1,0.8,1.2-0.1c0.7-3.1,0.9-3.8,0-4.7c-3.5-3.5-8.4-4.3-10.3-4.5C0.2,11.4,0,12,0.4,12.1
	C2.5,13,7.8,15.6,9.8,20.8z M29.8,11c0,0.3,0.1,0.5,0.3,0.7c0.2,0.1,0.3,0.2,0.5,0.2c0.1,0,0.2,0,0.2,0l1.8-0.6
	c0.7-0.2,1.1-0.8,1.1-1.4V0h-4v5.7h-12v1.3h12V11z M29.8,43.3c0.1,1.8,4,0,4-0.9v-5.8h15.5v-1.4H33.7v-11h13.8v-1.4H36.4
	c1.4-1.6,3.7-3.9,6.4-5.5c1.3-0.7,0.9-1.3-2.5-1.9c-2.5-0.4-3.7-1.1-3.9,0.2c-0.6,3.4-1.7,5.9-2.6,7.1h-5.7c2.1-3.8-3.7-7.4-5.8-8.6
	H49v-1.4H15.4v1.4h4.6c1.7,1.4,4.7,4.3,5.9,8.6h-9.7l-0.1,1.4h13.6v5H18.6v1.4h11.1v4.6H15v1.4h14.8V43.3L29.8,43.3z M45.9,5.7H35.6
	v1.3h10.3V5.7z M45.2,29.1h-9.6v1.4h9.6V29.1z M50.2,44.3c-13.6,0.6-33.9,3.6-37.7-3.3V23.8H8v1.8H0.8V27H8v14.1l-0.1,0.1
	c-1.9,2.6-4.6,5-6.7,6.7c-0.2,0.2-0.2,0.5,0,0.7L3.6,51c0.3,0.3,0.7,0.3,1.1-0.2c1.6-1.9,3.8-4.7,5.8-9.1c3.3,7.2,11.1,8.2,24.8,8
	c12-0.1,13.8,0.2,14.4-1.5C50.4,46,51.2,44.2,50.2,44.3z M80.5,1.5h-21v1.4h21V1.5z M103.7,1.5H82.2v1.4h21.4V1.5z M64.8,15.3V5.5
	h-3.7v10.7C61.1,17.9,64.8,16.4,64.8,15.3z M101.6,16.7V5.5h-3.7v0.9h-8v1.4h8v9.8C97.9,19.4,101.6,17.8,101.6,16.7z M97.2,33.7
	c0,1.5,4.4,0.2,4.4-1.3v-9.4L97.3,25H91v1.3h6.2v5.1h-8V21h14.7v-1.4H84.2c0.1-0.3,0.4-1,0.5-1.3c0.3,0.4,3.2-0.5,3.2-1.6V5.5h-3.7
	v10.8c-1.7-2.6-4.2-4-5.8-4.7V5.5h-3.7v0.9h-8v1.4h8v9.8c0.1,1.7,3.9,0.1,3.7-1.2v-3c1.3,1.3,2.9,3.3,3.6,6H64.6v-0.1L61,18.2
	c0,0,0.3,14.9,0,19.3c-0.5,7.2-3.2,10.9-5.3,13c-0.5,1,0.8,0.7,1.2,0.2c4.8-3.5,7.6-9.2,7.6-15.2v-2.7l0,0h32.6V33.7z M73.9,31.4
	h-9.3v-5h9.3V31.4z M85.5,25h-6v1.4h6v5.1h-7.8V21h7.8V25L85.5,25z M73.9,21v3.9h-9.3V21H73.9z M82.5,44c-2.2,0.4-7,0.9-10.9,1.2V40
	H82v-1.3H71.6V35H68v10.5c-2.7,0.2-3.8,0.2-4.3,0.2l1,4.9c8.6-0.8,17.8-4,18.2-4.1L82.5,44z M102.1,39.9c0.5,6.5,0,6.4-7.6,6.4
	c-3.5,0-6.5,0.1-6.5-2.7v-1.1c4.7-0.7,10.4-3,12.5-4l-2.8-3.1c-4.9,3.6-8.3,4.9-9.8,5.5V35h-3.5v9.5c0,4,2,5,10.2,5
	c10.8,0,11.5-1,9-9.5C103.3,39.2,102.1,39.5,102.1,39.9z M66.2,10.6c1.1,0.7,3.6,2.8,4.2,5.9c-0.1,0.8,1,1.4,1.5,0.6
	c0.4-0.9,1.4-2.3,0.7-3.3c-1.7-2.7-4.6-3.8-5.8-4.3C66,9.2,65.5,10.2,66.2,10.6z M90.6,9.5c-0.7-0.2-1.2,0.7-0.6,1.1
	c1.1,0.8,3.6,2.8,4.2,5.9c-0.1,0.8,1,1.4,1.5,0.6c0.4-0.9,1.4-2.3,0.7-3.3C94.7,11.1,91.8,9.9,90.6,9.5L90.6,9.5z M7.8,67.3H7.6
	c-0.3-1.7-1.4-2.6-2.8-2.6c-1.1,0-2.6,0.3-2.6,4.4c0,2.3,0.4,4.5,2.6,4.5c2.2,0,2.7-1.8,3-2.7H8v2.7H7.8l-0.4-0.7
	c-0.5,0.4-1.2,0.9-2.7,0.9c-2.4,0-4.4-1.6-4.4-4.7c0-2.6,1.7-4.7,4.4-4.7c1.6,0,2.2,0.6,2.5,0.9l0.5-0.7h0.2V67.3z M22.7,73.5H24
	v0.2h-4.4v-0.2h1.3v-8.6h-1.3v-0.2H24v0.2h-1.3V73.5z M36.5,73.5H38v-8.6c-2.7,0-3,1.7-3.1,2.7h-0.2l0.1-2.9h8l0.2,2.9h-0.2
	c-0.1-0.9-0.4-2.7-3.1-2.7v8.6h1.4v0.2h-4.6L36.5,73.5L36.5,73.5z M58.3,64.7v0.2h-1.6l2.7,4l2.4-4h-1.5v-0.2H63v0.2h-1l-2.6,4.3
	v4.3h1.4v0.2h-4.6v-0.2h1.4v-4.1l-3-4.5h-0.9v-0.2H58.3L58.3,64.7z M93,64.7c2.6,0,4.8,1.4,4.8,4.4c0,2.9-2,4.6-4.8,4.6h-4.7v-0.2
	h1.4v-8.6h-1.4v-0.2H93z M91.5,64.8v8.6h1.1c2.6,0,3.2-1.7,3.2-4.2c0-3.7-1.3-4.4-3-4.4L91.5,64.8L91.5,64.8z M112,73.5h1.3v0.2H109
	v-0.2h1.3v-8.6H109v-0.2h4.4v0.2H112V73.5z M126.2,71.1l-0.9,2.4h1.7v0.2h-2.9v-0.2h1l3.4-9h0.5l3.3,9h1v0.2H129v-0.2h1.5l-0.9-2.4
	H126.2L126.2,71.1z M129.5,70.9l-1.6-4.4l-1.7,4.4H129.5z M147.4,64.7l2.6,6.6l2.5-6.6h3.3v0.2h-1.4v8.6h1.4v0.2h-4.5v-0.2h1.3v-8.6
	l-3.3,8.8h-0.2l-3.5-8.8v8.6h1.3v0.2H144v-0.2h1.4v-8.6H144v-0.2H147.4L147.4,64.7z M171.4,64.5c2.3,0,4.5,2,4.5,4.7
	s-2.1,4.7-4.5,4.7c-2.3,0-4.5-2-4.5-4.7C167,66.5,169.1,64.5,171.4,64.5z M171.4,73.7c2.3,0,2.4-2.3,2.4-4.5c0-2.3-0.1-4.5-2.5-4.5
	S169,67,169,69.2C169,71.4,169.1,73.7,171.4,73.7z M190.6,64.7l4.4,6.2v-6h-1.3v-0.2h2.7v0.2h-1.2v9H195l-6.4-9v8.6h1.3v0.2h-2.7
	v-0.2h1.2v-8.6h-1.2v-0.2H190.6z M211.9,64.7c2.6,0,4.8,1.4,4.8,4.4c0,2.9-2,4.6-4.8,4.6h-4.7v-0.2h1.4v-8.6h-1.4v-0.2H211.9z
	 M210.3,64.8v8.6h1.1c2.6,0,3.2-1.7,3.2-4.2c0-3.7-1.3-4.4-3-4.4L210.3,64.8L210.3,64.8z"/>
</svg>
